Obsidian-SemiLight/actions/24s/archive-insert.svg

<svg viewBox="0 0 24 24" xmlns="http://www.w3.org/2000/svg"><path d="m5 4v16h1 7v-1h-7v-14h12v9h1v-10h-1-12zm11 11v2h-2v1h2v2h1v-2h2v-1h-2v-2z" fill="#4d4d4d"/></svg>

<svg xmlns="http://www.w3.org/2000/svg" viewBox="0 0 24 24">
  <defs id="defs3051">
    <style type="text/css" id="current-color-scheme">
      .ColorScheme-Text {
        color:#4d4d4d;
      }
      </style>
  </defs>
 <path style="fill:currentColor;fill-opacity:1;stroke:none" 
     d="M 5 4 L 5 20 L 6 20 L 13 20 L 13 19 L 6 19 L 6 5 L 18 5 L 18 14 L 19 14 L 19 4 L 18 4 L 6 4 L 5 4 z M 16 15 L 16 17 L 14 17 L 14 18 L 16 18 L 16 20 L 17 20 L 17 18 L 19 18 L 19 17 L 17 17 L 17 15 L 16 15 z "
     class="ColorScheme-Text"
     />
</svg>
